X: 11079
T: Duck Egg
R: reel
M: 4/4
K: Gminor
|:d3d cBAB|G3A BABc|d2f2 cBAB|G4 D4|
d2f2 cBAB|G3A BABc|d2dd cBAB|1 G8:|2 (G4 G2)GA||
|:G2B2 F3B|G2B2 F3B|G2B2 B2c2|dcBc dcBA|
G2B2 F3B|G2B2 F3B|G2B2 B2d2|1 c2{dc}(B2 B3)B:|2 c2{dc}(B2 B3)c||
|:d2f2 e3d|c2B2 d4|d2cd e2de|g2f2 f4|
d2f2 e3d|c2B2 d4|d2cd e2ce|B2G2 G4:|

